X:5
T:In memory of You
C:Morris Lenahan
S:Cherish the Ladies CD
M:3/4
N:needs D.C. al fine, and fine at first double bar. 
I:speed 250
K:G
DE | G4 e2 | d4 (3BAG | AB G4 | G4 DE | G4 e2 | d4 Bd | d6| d2e2f2 | g4 ed | 
g4 ed | e2 d3B | AB G2 (3GFE | D4 e2 | d4 (3BAG | DE G2A2 | G6 |G4 ||
dc |: B3d (3BAG | d4 Bd | c2 d2 e2 | d4 Bc | B3d (3BAG | d4 Bd | c2 d2 e2 | 
def def | g4 ed | g4 ed | e2 d3B | AB G2 (3GFE | D4 e2 | d4 (3BAG | DE G2A2 | 
G6 |[1 G4dc :|[2 G4 DE ||
